X: 12802
T: Feathered Gael, The
R: strathspey
M: 4/4
K: Dmajor
F>G|A>F E<F D2 d>c|B>A B<d F2 E>D|G>AB>G A>F E<D|G>F E<D E2
F>G|A>F E<F D2 d>c|B>A B<d F2 E>D|G>AB>G A>F E<F|D6:|
d>e|f>e f<d e2 A>c|d>c d<B c2 A>F|G>AB>G A>F E<D|g>f e<d e2
d>e|f>e f<d e2 A>c|d>c d<B c2 A>F|G>AB>G A>F E<F|D6:|

